X:1
T:As for Me and My House
T:Franklin Edson Belden, 1909
T:As for Me and My House
T:Public Domain
T:Public Domain
C:Franklin Edson Belden, 1909
Z:Public Domain
%%score ( 1 2 ) ( 3 4 )
L:1/8
M:4/4
K:D
V:1 treble 
V:2 treble 
V:3 bass 
V:4 bass 
V:1
 D4 FE D2 | GF E2 A4 | [FA]3 [FA] [GB][FA][DF][Fd] | [Ac]2 [^GB]2 [=GA]4 | D4 FE D2 | %5
w: 1.~Like Ca- leb and|On the bor- ders|land, O- bey- ing Je- ho-|vah’s com- mand,|say- ing, “As for|
w: 2.~“Well a- ble to|Tell it out to|band; Faith bring- eth the tri-|umph God planned,|say- ing, * *|
w: 3.~Walled ci- ties go|Per- se- ver- ance|crowned; Sin gi- ants of ha-|bit are bound,|say- ing, * *|
 AG F2 [Fd]2 [GA][GA] ||"^Refrain" (A3 A d2) [Ac]2 | AA G2 G2 z2 | (B3 B e2) [Bd]2 | BB A2 A2 z2 | %10
w: As for me and my house,|and * * my|We will serve the|||
w: |||||
w: |||||
 (c3 c f2) [ce]2 | BB [^Ac]2 B2 BB | [Ad]4 [Ac]4 | [Ad]6 |] %14
w: ||||
w: ||||
w: ||||
V:2
 D4 FE D2 | GF E2 A4 | x8 | x8 | D4 FE D2 | AG F2 x4 || F6 x2 | c2 B4 x2 | ^G6 x2 | d2 c4 x2 | %10
w: Josh- u- a stand,|of the prom- ised|||me and my house,|As for me|house,|Lord.” *|||
w: en- ter the land,”|ev- ery doubt- ing|||||||||
w: sev- en times round,|is with vic- tory|||||||||
 ^A6 x2 | d2 x B2 e2 x | x8 | x6 |] %14
w: ||||
w: ||||
w: ||||
V:3
 D,4 F,E, D,2 | G,F, E,2 A,4 | [D,D]3 [D,D] [D,D][D,D][D,A,][D,A,] | [E,E]2 [E,E]2 [A,,C]4 | %4
w: ~ ~ ~ ~|~ ~ ~ ~|~ ~ ~ ~ ~ ~|~ ~ ~|
 D,4 F,E, D,2 | A,G, F,2 [B,D]2 [CE][CE] || z2 DD (D,D,F,)F, | (D2 D2) [G,D]2 z2 | %8
w: ~ ~ “As for|As for me and my house,|and my house, * * We|serve * the|
 z2 EE (E,E,^G,)G, | (E2 E2) [A,E]2 z2 | z2 FF (F,F,^A,)A, | [B,F]2 [F,E]2 [G,D]2 (GG) | %12
w: ||||
 [A,F]4 [A,,E]4 | [D,F]6 |] %14
w: ||
V:4
 D,4 F,E, D,2 | G,F, E,2 A,4 | x8 | x8 | D,4 F,E, D,2 | A,G, F,2 x4 || x4 A,2 x2 | G,4 x4 | %8
w: ~ ~ ~ ~|~ ~ ~ ~|||me and my house,|As for me|will|Lord.”|
 x4 B,2 E2 | A,4 x4 | x4 C2 F2 | x6 E,2 | x8 | x6 |] %14
w: ||||||

